docs/.gitbook/assets/icon-arrow-right-circle-16@dark.svg

<svg width="32" height="32" viewBox="0 0 16 16" fill="none" xmlns="http://www.w3.org/2000/svg">
<rect x="0" y="0" width="16" height="16" fill="#181c1f"/>
<path fill-rule="evenodd" clip-rule="evenodd" d="M8 2.5C4.96243 2.5 2.5 4.96243 2.5 8C2.5 11.0376 4.96243 13.5 8 13.5C11.0376 13.5 13.5 11.0376 13.5 8C13.5 4.96243 11.0376 2.5 8 2.5ZM1 8C1 4.13401 4.13401 1 8 1C11.866 1 15 4.13401 15 8C15 11.866 11.866 15 8 15C4.13401 15 1 11.866 1 8ZM8.19253 5.24828C8.46962 4.94039 8.94384 4.91544 9.25172 5.19253L11.7517 7.44253C11.9098 7.58476 12 7.78738 12 8C12 8.21262 11.9098 8.41524 11.7517 8.55747L9.25172 10.8075C8.94384 11.0846 8.46962 11.0596 8.19253 10.7517C7.91544 10.4438 7.94039 9.96962 8.24828 9.69253L9.29553 8.75H4.75C4.33579 8.75 4 8.41421 4 8C4 7.58579 4.33579 7.25 4.75 7.25H9.29553L8.24828 6.30747C7.94039 6.03038 7.91544 5.55616 8.19253 5.24828Z" fill="#fff"/>
</svg>

<svg xmlns="http://www.w3.org/2000/svg" width="32" height="32" fill="none" viewBox="0 0 16 16"><path fill="#181c1f" d="M0 0h16v16H0z"/><path fill="#fff" fill-rule="evenodd" d="M8 2.5a5.5 5.5 0 1 0 0 11 5.5 5.5 0 0 0 0-11M1 8a7 7 0 1 1 14 0A7 7 0 0 1 1 8m7.193-2.752a.75.75 0 0 1 1.059-.055l2.5 2.25a.75.75 0 0 1 0 1.114l-2.5 2.25a.75.75 0 0 1-1.004-1.114l1.048-.943H4.75a.75.75 0 0 1 0-1.5h4.546l-1.048-.943a.75.75 0 0 1-.055-1.059" clip-rule="evenodd"/></svg>
